X:1
T:Bringing In the Sheaves
M:4/4
L:1/8
K:C
 GG G3/2 A/2 G2 E2| cc c3/2 d/2 c2 A2| GG G3/2 A/2 G2 E2| EE D^C D4|\
 EG G3/2 A/2 G2 E2| cc c3/2 d/2 c2 A2| GG cd e2 c2| dc e3/2 d/2 c4|\
 EG G3/2 A/2 G4| Ac c3/2 A/2 G4| GG cd e2 c2| ee d3/2 c/2 d4| EG G3/2 A/2 G4|\
 Ac c3/2 A/2 G4| GG cd e2 c2| dc e3/2 d/2 c4|
